images_sukapura_svg/cmd/32/changecasetoupper.svg

<svg viewBox="0 0 32 32" xmlns="http://www.w3.org/2000/svg" xmlns:xlink="http://www.w3.org/1999/xlink"><linearGradient id="a" gradientTransform="matrix(1 0 0 -1 0 13.000386)" gradientUnits="userSpaceOnUse" x1="24" x2="24" y1="3.000386" y2="10.000386"><stop offset="0" stop-color="#0040dd"/><stop offset="1" stop-color="#0a84ff"/></linearGradient><path d="m13.241609 25.263791h-6.2636448l-1.2747068 3.736209h-2.7032573l5.8790353-15.999767h2.5274356l5.813102 15.999767h-2.714246zm-5.4944253-2.230737h4.7361953l-2.318648-6.835066h-.06593z" fill="#4b4b4f"/><path d="m18.076689 29v-15.999767h5.318604q2.659302 0 4.153786 1.098885 1.494484 1.087896 1.494484 3.263689 0 1.087896-.626365 1.945026-.626365.857131-1.736238 1.274707 1.42855.318677 2.19777 1.373606.769219 1.05493.769219 2.450514 0 2.252715-1.472506 3.428522-1.472506 1.164818-4.065875 1.164818zm2.670291-7.274619v5.142782h3.362588q1.384596 0 2.131837-.626365.747242-.637353.747242-1.835138 0-1.274706-.626364-1.977993-.626365-.703286-1.956016-.703286zm0-1.988982h2.945012q1.24174 0 1.956016-.58241.725264-.593398.725264-1.670305 0-1.186796-.758231-1.758216-.758231-.582409-2.219748-.582409h-2.648313z" fill="#4b4b4f"/><path d="m19 10.008198a1.0081374 1.0081374 0 0 1 -.712891-1.7207028l5-5.0000004a1.0081374 1.0081374 0 0 1 1.425782 0l5 5.0000004a1.0081374 1.0081374 0 0 1 -.712891 1.7207028z" fill="url(#a)"/></svg>

<?xml version="1.0" encoding="UTF-8" standalone="no"?>
<svg
   xmlns:dc="http://purl.org/dc/elements/1.1/"
   xmlns:cc="http://creativecommons.org/ns#"
   xmlns:rdf="http://www.w3.org/1999/02/22-rdf-syntax-ns#"
   xmlns:svg="http://www.w3.org/2000/svg"
   xmlns="http://www.w3.org/2000/svg"
   xmlns:xlink="http://www.w3.org/1999/xlink"
   xmlns:sodipodi="http://sodipodi.sourceforge.net/DTD/sodipodi-0.dtd"
   xmlns:inkscape="http://www.inkscape.org/namespaces/inkscape"
   viewBox="0 0 32 32"
   version="1.1"
   id="svg14"
   sodipodi:docname="changecasetoupper.svg"
   inkscape:version="0.92.3 (2405546, 2018-03-11)">
  <metadata
     id="metadata20">
    <rdf:RDF>
      <cc:Work
         rdf:about="">
        <dc:format>image/svg+xml</dc:format>
        <dc:type
           rdf:resource="http://purl.org/dc/dcmitype/StillImage" />
        <dc:title></dc:title>
      </cc:Work>
    </rdf:RDF>
  </metadata>
  <defs
     id="defs18">
    <linearGradient
       inkscape:collect="always"
       xlink:href="#a-6"
       id="linearGradient1646"
       x1="24"
       y1="3.000386"
       x2="24"
       y2="10.000386"
       gradientUnits="userSpaceOnUse"
       gradientTransform="matrix(1,0,0,-1,0,13.000386)" />
    <linearGradient
       gradientTransform="translate(-29.694915,1.220339)"
       id="a-6"
       gradientUnits="userSpaceOnUse"
       x1="14"
       x2="13.79661"
       y1="22"
       y2="2.1355929">
      <stop
         offset="0"
         stop-color="#0040dd"
         id="stop2" />
      <stop
         offset="1"
         stop-color="#0a84ff"
         id="stop4" />
    </linearGradient>
  </defs>
  <sodipodi:namedview
     pagecolor="#ffffff"
     bordercolor="#666666"
     borderopacity="1"
     objecttolerance="10"
     gridtolerance="10"
     guidetolerance="10"
     inkscape:pageopacity="0"
     inkscape:pageshadow="2"
     inkscape:window-width="1366"
     inkscape:window-height="716"
     id="namedview16"
     showgrid="true"
     inkscape:zoom="14.75"
     inkscape:cx="15.779131"
     inkscape:cy="11.774579"
     inkscape:window-x="-8"
     inkscape:window-y="-8"
     inkscape:window-maximized="1"
     inkscape:current-layer="svg14">
    <inkscape:grid
       type="xygrid"
       id="grid827" />
  </sodipodi:namedview>
  <path
     inkscape:connector-curvature="0"
     id="path833"
     style="font-style:normal;font-variant:normal;font-weight:500;font-stretch:normal;font-size:medium;line-height:1.25;font-family:Roboto;-inkscape-font-specification:'Roboto Medium';letter-spacing:0px;word-spacing:0px;fill:#4b4b4f;fill-opacity:1;stroke:none;stroke-width:0.56262916"
     d="M 13.241609,25.263791 H 6.9779642 L 5.7032574,29 H 3.0000001 L 8.8790354,13.000233 H 11.406471 L 17.219573,29 H 14.505327 Z M 7.7471837,23.033054 h 4.7361953 l -2.318648,-6.835066 h -0.06593 z" />
  <path
     inkscape:connector-curvature="0"
     id="path835"
     style="font-style:normal;font-variant:normal;font-weight:500;font-stretch:normal;font-size:medium;line-height:1.25;font-family:Roboto;-inkscape-font-specification:'Roboto Medium';letter-spacing:0px;word-spacing:0px;fill:#4b4b4f;fill-opacity:1;stroke:none;stroke-width:0.56262916"
     d="M 18.076689,29 V 13.000233 h 5.318604 q 2.659302,0 4.153786,1.098885 1.494484,1.087896 1.494484,3.263689 0,1.087896 -0.626365,1.945026 -0.626365,0.857131 -1.736238,1.274707 1.42855,0.318677 2.19777,1.373606 0.769219,1.05493 0.769219,2.450514 0,2.252715 -1.472506,3.428522 Q 26.702937,29 24.109568,29 Z m 2.670291,-7.274619 v 5.142782 h 3.362588 q 1.384596,0 2.131837,-0.626365 0.747242,-0.637353 0.747242,-1.835138 0,-1.274706 -0.626364,-1.977993 -0.626365,-0.703286 -1.956016,-0.703286 z m 0,-1.988982 h 2.945012 q 1.24174,0 1.956016,-0.58241 0.725264,-0.593398 0.725264,-1.670305 0,-1.186796 -0.758231,-1.758216 -0.758231,-0.582409 -2.219748,-0.582409 H 20.74698 Z" />
  <path
     style="fill:url(#linearGradient1646);fill-opacity:1;stroke:none;stroke-width:2;stroke-linecap:round;stroke-linejoin:round"
     d="M 19,10.008198 A 1.0081374,1.0081374 0 0 1 18.287109,8.2874952 l 5,-5.0000004 a 1.0081374,1.0081374 0 0 1 1.425782,0 l 5,5.0000004 A 1.0081374,1.0081374 0 0 1 29,10.008198 Z"
     id="path14"
     inkscape:connector-curvature="0" />
</svg>
